flaticon/essential/mute.svg

<svg xmlns="http://www.w3.org/2000/svg" width="32" height="32" viewBox="0 0 24 24">
    <path d="M 20.488281 3.511719 C 15.808594 -1.167969 8.195312 -1.167969 3.515625 3.511719 C 1.25 5.78125 0 8.792969 0 12 C 0 15.207031 1.25 18.21875 3.515625 20.488281 C 5.855469 22.828125 8.929688 23.996094 12.003906 23.996094 C 15.078125 23.996094 18.148438 22.828125 20.488281 20.488281 C 25.167969 15.808594 25.167969 8.191406 20.488281 3.511719 Z M 4.082031 4.078125 C 6.265625 1.894531 9.132812 0.804688 12.003906 0.804688 C 14.746094 0.804688 17.488281 1.804688 19.632812 3.804688 L 16.804688 6.632812 L 16.804688 4.039062 C 16.804688 3.589844 16.570312 3.1875 16.179688 2.964844 C 15.789062 2.738281 15.320312 2.742188 14.933594 2.972656 C 14.90625 2.984375 14.882812 3.003906 14.863281 3.023438 L 9.566406 7.957031 C 9.503906 7.984375 9.4375 8 9.371094 8 L 6.042969 8 C 5.359375 8 4.800781 8.554688 4.800781 9.242188 L 4.800781 14.359375 C 4.800781 15.042969 5.359375 15.601562 6.042969 15.601562 L 7.835938 15.601562 L 3.804688 19.632812 C 1.867188 17.550781 0.800781 14.859375 0.800781 12 C 0.800781 9.007812 1.964844 6.195312 4.082031 4.078125 Z M 8.636719 14.800781 L 6.042969 14.800781 C 5.800781 14.800781 5.601562 14.601562 5.601562 14.359375 L 5.601562 9.242188 C 5.601562 8.996094 5.800781 8.800781 6.042969 8.800781 L 9.375 8.800781 C 9.59375 8.800781 9.8125 8.738281 10.003906 8.628906 C 10.027344 8.613281 10.050781 8.59375 10.074219 8.574219 L 15.371094 3.640625 C 15.558594 3.550781 15.71875 3.621094 15.78125 3.65625 C 15.847656 3.695312 16.003906 3.808594 16.003906 4.039062 L 16.003906 7.433594 Z M 16.003906 8.566406 L 16.003906 19.558594 C 16.003906 19.789062 15.847656 19.902344 15.78125 19.941406 C 15.71875 19.976562 15.554688 20.046875 15.371094 19.957031 L 10.074219 15.023438 C 10.050781 15.003906 10.027344 14.984375 10 14.972656 C 9.914062 14.917969 9.816406 14.878906 9.714844 14.851562 Z M 19.925781 19.921875 C 15.652344 24.195312 8.757812 24.285156 4.371094 20.195312 L 8.96875 15.601562 L 9.371094 15.601562 C 9.4375 15.601562 9.503906 15.617188 9.566406 15.644531 L 14.863281 20.578125 C 14.882812 20.597656 14.90625 20.613281 14.933594 20.628906 C 15.128906 20.746094 15.34375 20.804688 15.5625 20.804688 C 15.773438 20.804688 15.984375 20.746094 16.179688 20.636719 C 16.570312 20.414062 16.804688 20.011719 16.804688 19.558594 L 16.804688 7.765625 L 20.199219 4.367188 C 24.289062 8.753906 24.195312 15.648438 19.925781 19.921875 Z M 19.925781 19.921875"/>
</svg>

<svg xmlns="http://www.w3.org/2000/svg" width="32" height="32" viewBox="0 0 24 24">
    <path d="M20.488 3.512c-4.68-4.68-12.293-4.68-16.972 0A11.935 11.935 0 0 0 0 12c0 3.207 1.25 6.219 3.516 8.488a11.965 11.965 0 0 0 8.488 3.508c3.074 0 6.144-1.168 8.484-3.508 4.68-4.68 4.68-12.297 0-16.976zm-16.406.566A11.163 11.163 0 0 1 12.004.805c2.742 0 5.484 1 7.629 3l-2.828 2.828V4.039c0-.45-.235-.851-.625-1.074a1.218 1.218 0 0 0-1.246.008.232.232 0 0 0-.07.05L9.565 7.957A.49.49 0 0 1 9.371 8H6.043c-.684 0-1.242.555-1.242 1.242v5.117c0 .684.558 1.243 1.242 1.243h1.793l-4.031 4.03A11.135 11.135 0 0 1 .8 12c0-2.992 1.164-5.805 3.281-7.922zm4.555 10.723H6.043a.443.443 0 0 1-.441-.442V9.242c0-.246.199-.441.441-.441h3.332c.219 0 .438-.063.629-.172.023-.016.047-.035.07-.055l5.297-4.933a.439.439 0 0 1 .41.015c.067.04.223.153.223.383v3.395zm7.367-6.235V19.56c0 .23-.156.343-.223.382a.44.44 0 0 1-.41.016l-5.297-4.934a1.029 1.029 0 0 0-.36-.172zm3.922 11.356c-4.274 4.273-11.168 4.363-15.555.273l4.598-4.593h.402a.49.49 0 0 1 .195.043l5.297 4.933c.02.02.043.035.07.05a1.215 1.215 0 0 0 1.247.009c.39-.223.625-.625.625-1.078V7.766l3.394-3.399c4.09 4.387 3.996 11.281-.273 15.555zm0 0"/>
</svg>
